X:1
T:The Soldier's Fortune
M:2/4
L:1/8
K:E
 B,| GB BG| AG FE| GB BG| F3 B,| GB BG| AG FE| EE/2-G/2 FE| C2 EE|\
 B,E EE| B,E E E/2E/2| B,A GF| E3||
